X: 250
T: The Colliers'
R: reel
M: 4/4
L: 1/8
K: Dmix
|:"G"FDFG A3B|"C"cAdB cAGB|"D"Add^c d2de|fde^c dcAG|
"G"FDFG A3B|"C"cAdB cAGB|"D"Add^c ABAG|1 "D"EFGE FDD2:|2 "D"EFGE FDD2||
|:"D"f2eg fde^c|Add^c Adde|f2eg fde^c|"C"AGAB c3d|
"G"eaag efge|dfed cAGB|"D"Add^c ABAG|1 "D"EFGE FDD2:|2 "D"EFGE FDD2|| 

